X: 0
T:The Black Stripper
T:An Maide Draighin
M:6/8
L:1/8
R:jig
K:Gmaj
GED D3|GEG c2e|dBG GAB|AGE E3|GED D3|
GEG c2e|dBG GAB|1 AGF G3:|]2 AGF G2d[|gdB GBd|
gdB c2e|dBG GAB|AGE E3|gdB GBd|gdB c2e|
dBG GAB|AGF G2d|gdd gdd|gdB c2e|dBG GAB|
AGE E3|GED D3|GEG c2e|dBG GAB|AGF G3|]
